dist/pulse/img/icons/instagram-seeklo.svg

<?xml version="1.0" encoding="UTF-8" standalone="no"?>
<svg width="256px" height="256px" viewBox="0 0 256 256" version="1.1" xmlns="http://www.w3.org/2000/svg" xmlns:xlink="http://www.w3.org/1999/xlink" preserveAspectRatio="xMidYMid">
    <g>
        <path d="M226.467714,256 L29.5322856,256 C13.2237152,256 0,242.771645 0,226.451622 L0,29.5325465 C0,13.2215704 13.2237152,0 29.5322856,0 L226.467714,0 C242.778546,0 256,13.2215704 256,29.5325465 L256,226.451622 C256,242.771645 242.778546,256 226.467714,256 L226.467714,256 Z M127.998869,78.7662732 C100.807364,78.7662732 78.767839,100.803732 78.767839,127.995477 C78.767839,155.182698 100.807364,177.231465 127.998869,177.231465 C155.190374,177.231465 177.234423,155.182698 177.234423,127.995477 C177.234423,100.803732 155.190374,78.7662732 127.998869,78.7662732 L127.998869,78.7662732 Z M226.467714,39.3774825 C226.467714,33.9427521 222.057548,29.5325465 216.611557,29.5325465 L187.079272,29.5325465 C181.640066,29.5325465 177.234423,33.9427521 177.234423,39.3774825 L177.234423,68.9213372 C177.234423,74.3560676 181.640066,78.7662732 187.079272,78.7662732 L216.611557,78.7662732 C222.057548,78.7662732 226.467714,74.3560676 226.467714,68.9213372 L226.467714,39.3774825 Z M226.467714,108.296558 L204.181672,108.296558 C205.805518,114.59976 206.764447,121.185667 206.764447,127.995477 C206.764447,171.504983 171.501206,206.766273 127.998869,206.766273 C84.4987941,206.766273 49.2332918,171.504983 49.2332918,127.995477 C49.2332918,121.185667 50.1967436,114.59976 51.8205896,108.296558 L29.5322856,108.296558 L29.5322856,216.613471 C29.5322856,222.043678 33.9424523,226.451622 39.3884427,226.451622 L216.611557,226.451622 C222.057548,226.451622 226.467714,222.043678 226.467714,216.613471 L226.467714,108.296558 Z" fill="#343433"></path>
    </g>
</svg>

<svg width="256" height="256" xmlns="http://www.w3.org/2000/svg" preserveAspectRatio="xMidYMid"><path d="M226.468 256H29.532C13.224 256 0 242.772 0 226.452V29.532C0 13.223 13.224 0 29.532 0h196.936C242.778 0 256 13.222 256 29.533v196.919c0 16.32-13.221 29.548-29.532 29.548zm-98.47-177.234c-27.19 0-49.23 22.038-49.23 49.23 0 27.187 22.04 49.235 49.23 49.235 27.192 0 49.236-22.048 49.236-49.236 0-27.191-22.044-49.229-49.235-49.229zm98.47-39.389c0-5.434-4.41-9.844-9.856-9.844h-29.533c-5.439 0-9.845 4.41-9.845 9.844v29.544c0 5.435 4.406 9.845 9.845 9.845h29.533c5.446 0 9.856-4.41 9.856-9.845V39.377zm0 68.92h-22.286c1.624 6.303 2.582 12.889 2.582 19.698 0 43.51-35.263 78.771-78.765 78.771-43.5 0-78.766-35.261-78.766-78.77 0-6.81.964-13.396 2.588-19.7H29.532v108.317c0 5.43 4.41 9.839 9.856 9.839h177.224c5.446 0 9.856-4.408 9.856-9.839V108.297z" fill="#343433"/></svg>
